assets/icons/commission.svg

<svg width="20" height="20" viewBox="0 0 20 20" fill="none" xmlns="http://www.w3.org/2000/svg">
<path d="M17.1546 13.868C16.7161 11.2508 15.463 8.83871 13.5738 6.9752C13.1602 6.5728 12.9538 6.372 12.497 6.1864C12.0402 6 11.6474 6 10.8626 6H9.13776C8.35296 6 7.96016 6 7.50336 6.1864C7.04736 6.372 6.83936 6.5728 6.42656 6.9752C4.53732 8.83871 3.28424 11.2508 2.84576 13.868C2.45616 16.2184 4.62416 18 7.04656 18H12.9538C15.377 18 17.5458 16.2184 17.1538 13.868" stroke="currentColor" stroke-width="1.3" stroke-linecap="round" stroke-linejoin="round"/>
<path d="M6.20562 3.95455C6.04002 3.71455 5.80082 3.38815 6.29522 3.31455C6.80322 3.23775 7.33042 3.58495 7.84722 3.57855C8.31362 3.57135 8.55122 3.36415 8.80722 3.06815C9.07602 2.75695 9.49202 2.00015 10 2.00015C10.508 2.00015 10.924 2.75695 11.1928 3.06815C11.4488 3.36415 11.6864 3.57215 12.1528 3.57775C12.6696 3.58575 13.1968 3.23775 13.7048 3.31375C14.1992 3.38815 13.96 3.71375 13.7944 3.95375L13.0488 5.04095C12.7288 5.50495 12.5696 5.73695 12.2352 5.86895C11.9008 6.00095 11.4696 6.00015 10.6064 6.00015H9.39362C8.52962 6.00015 8.09842 6.00015 7.76482 5.86895C7.43122 5.73775 7.27122 5.50415 6.95122 5.04015L6.20562 3.95455Z" stroke="currentColor" stroke-width="1.3" stroke-linejoin="round"/>
<path d="M11.3016 10.7352C11.1288 10.096 10.248 9.52 9.19124 9.9512C8.13444 10.3824 7.96724 11.7688 9.56484 11.9168C10.288 11.9832 10.7584 11.8392 11.1896 12.2464C11.6216 12.6528 11.7016 13.7848 10.5984 14.0896C9.49684 14.3944 8.40484 13.9184 8.28644 13.2416M9.87364 9.1936V9.8024M9.87364 14.1832V14.7944" stroke="currentColor" stroke-width="1.3" stroke-linecap="round" stroke-linejoin="round"/>
</svg>

<svg xmlns="http://www.w3.org/2000/svg" width="20" height="20" fill="none" viewBox="0 0 20 20"><path stroke="currentColor" stroke-linecap="round" stroke-linejoin="round" stroke-width="1.3" d="M17.155 13.868a12.6 12.6 0 0 0-3.581-6.893c-.414-.402-.62-.603-1.077-.789S11.647 6 10.863 6H9.138c-.785 0-1.178 0-1.635.186-.456.186-.664.387-1.076.79a12.6 12.6 0 0 0-3.581 6.892C2.456 16.218 4.624 18 7.046 18h5.908c2.423 0 4.592-1.782 4.2-4.132"/><path stroke="currentColor" stroke-linejoin="round" stroke-width="1.3" d="M6.206 3.955c-.166-.24-.405-.567.09-.64.507-.077 1.034.27 1.551.264.467-.008.704-.215.96-.51C9.076 2.756 9.492 2 10 2s.924.757 1.193 1.068c.256.296.493.504.96.51.517.008 1.044-.34 1.552-.264.494.074.255.4.09.64l-.746 1.087c-.32.464-.48.696-.814.828S11.47 6 10.606 6H9.394c-.864 0-1.296 0-1.63-.131s-.493-.365-.813-.829z"/><path stroke="currentColor" stroke-linecap="round" stroke-linejoin="round" stroke-width="1.3" d="M11.302 10.735c-.173-.639-1.054-1.215-2.11-.784-1.058.431-1.225 1.818.373 1.966.723.066 1.193-.078 1.625.33a1.108 1.108 0 0 1-.592 1.843c-1.101.304-2.193-.172-2.312-.848m1.588-4.048v.608m0 4.381v.611"/></svg>
